X:1
T:Сулико
T:Сулико
T:грузинская народная песня
L:1/8
Q:1/4=80
M:4/4
K:C
V:1 treble nm="Гармоника" snm="Гарм."
V:1
|:!mp!"^Умеренно" GGEF G2 A>F | G6 z2 | BBBB B2 d>B | c6 z2 | ccBc (dcBA) | B2 A2 G4 | %6
 AAGG F2 G>F | E6 z2 |!p! ccBc (dcBA) | B2 A2 G4 | AAGG F2 G>F | E6 z2 :| %12

